resources/public/effectPlateMain/v000/resources/BLD_Ext_D_2-Sin709.cube
# Pomfort LiveGrade
# Created by LiveGrade 6.3.3 on 2023-04-20 14:07:35 +0000
LUT_3D_SIZE 5
0.056886 0.000000 0.000000
0.294974 0.000000 0.000000
0.535925 0.000000 0.000000
0.770918 0.000000 0.000000
0.998570 0.000000 0.000000
0.052086 0.268379 0.000000
0.290552 0.266483 0.000000
0.532445 0.263389 0.000000
0.769435 0.260310 0.000000
0.998554 0.257073 0.000000
0.043316 0.494598 0.000000
0.284742 0.493063 0.000000
0.526740 0.490076 0.000000
0.764612 0.486896 0.000000
0.998393 0.483828 0.000000
0.030024 0.718419 0.000000
0.279633 0.717518 0.000000
0.521200 0.714867 0.000000
0.759265 0.711815 0.000000
0.993946 0.708734 0.000000
0.000000 0.940927 0.000000
0.275306 0.940397 0.000000
0.516420 0.938156 0.000000
0.754244 0.935378 0.000000
0.989113 0.932425 0.000000
0.056277 0.000000 0.243092
0.294460 0.000000 0.240588
0.536122 0.000000 0.235562
0.772162 0.000000 0.229116
0.998640 0.000000 0.221242
0.051460 0.267868 0.237668
0.290039 0.265969 0.235028
0.532412 0.262817 0.229830
0.770997 0.259458 0.223171
0.998667 0.256132 0.214582
0.042234 0.494357 0.228361
0.283914 0.492746 0.224885
0.526362 0.489699 0.217999
0.765549 0.486341 0.207599
0.998497 0.483052 0.170786
0.028111 0.718602 0.215914
0.277748 0.717830 0.209291
0.519935 0.715030 0.179092
0.759218 0.711753 0.158645
0.995266 0.708372 0.149035
0.000000 0.941273 0.170467
0.272970 0.941086 0.161089
0.514240 0.938858 0.150915
0.753100 0.935853 0.139820
0.989261 0.932543 0.134020
0.055090 0.000000 0.460522
0.293237 0.000000 0.459488
0.534707 0.000000 0.456061
0.771213 0.000000 0.451813
0.998626 0.000000 0.447577
0.050393 0.266918 0.457271
0.289182 0.265098 0.456009
0.531572 0.262010 0.453036
0.770543 0.258469 0.449590
0.998689 0.254941 0.445848
0.040930 0.493365 0.451491
0.283045 0.491890 0.450049
0.525521 0.488843 0.447076
0.764959 0.485454 0.443767
0.998514 0.481971 0.440358
0.025272 0.717809 0.445667
0.276632 0.717129 0.443636
0.518949 0.714283 0.440552
0.758485 0.710989 0.437240
0.995390 0.707491 0.433896
0.000000 0.940729 0.440427
0.271229 0.940796 0.437722
0.512464 0.938564 0.434051
0.751786 0.935453 0.430590
0.988777 0.932028 0.427333
0.053709 0.000000 0.675788
0.291441 0.000000 0.676086
0.532433 0.000000 0.673216
0.769169 0.000000 0.669153
0.998553 0.000000 0.664798
0.049420 0.265771 0.674458
0.288211 0.264094 0.675121
0.530415 0.261026 0.672581
0.769294 0.257472 0.669055
0.998641 0.253848 0.664830
0.039643 0.492078 0.669464
0.282224 0.490840 0.669641
0.524547 0.487823 0.666965
0.764003 0.484434 0.663672
0.998479 0.480906 0.660065
0.021369 0.716606 0.663709
0.275906 0.716063 0.663150
0.517962 0.713293 0.660379
0.757527 0.710000 0.657087
0.994627 0.706488 0.653587
0.000000 0.939751 0.658150
0.270338 0.939870 0.656647
0.511281 0.937696 0.653527
0.750709 0.934543 0.650145
0.987897 0.931103 0.646634
0.052091 0.000000 0.893222
0.289713 0.000000 0.894026
0.530079 0.000000 0.891975
0.766799 0.000000 0.888592
0.998469 0.000000 0.884584
0.048188 0.264642 0.893087
0.287321 0.263159 0.894981
0.528839 0.260166 0.893705
0.767295 0.256633 0.890574
0.998559 0.252930 0.886315
0.037970 0.490760 0.889259
0.281830 0.489657 0.891144
0.523511 0.486755 0.889817
0.762827 0.483383 0.886858
0.998427 0.479885 0.883205
0.013589 0.715273 0.884171
0.275798 0.714757 0.885272
0.517032 0.712181 0.883612
0.756475 0.708905 0.880558
0.993590 0.705390 0.877073
0.000000 0.938549 0.878787
0.270221 0.938577 0.878766
0.510439 0.936569 0.876715
0.749658 0.933473 0.873588
0.986873 0.930034 0.870104
