resources/public/effectPlateMain/v000/resources/BLD_Ext_D_2-Sin709.cube
# Pomfort LiveGrade
# Created by LiveGrade 6.3.3 on 2023-04-20 14:07:35 +0000
LUT_3D_SIZE 9
0.056886 0.000000 0.000000
0.175373 0.000000 0.000000
0.294974 0.000000 0.000000
0.416232 0.000000 0.000000
0.535925 0.000000 0.000000
0.654120 0.000000 0.000000
0.770918 0.000000 0.000000
0.887004 0.000000 0.000000
0.998570 0.000000 0.000000
0.055269 0.146596 0.000000
0.173611 0.145559 0.000000
0.293139 0.142733 0.000000
0.414576 0.138849 0.000000
0.534779 0.133690 0.000000
0.653644 0.125527 0.000000
0.770952 0.111704 0.000000
0.887368 0.097829 0.000000
0.998597 0.076846 0.000000
0.052086 0.268379 0.000000
0.170817 0.267736 0.000000
0.290552 0.266483 0.000000
0.412044 0.264976 0.000000
0.532445 0.263389 0.000000
0.651691 0.261884 0.000000
0.769435 0.260310 0.000000
0.886208 0.258714 0.000000
0.998554 0.257073 0.000000
0.047996 0.381847 0.000000
0.167506 0.381266 0.000000
0.287653 0.380050 0.000000
0.409160 0.378575 0.000000
0.529651 0.376989 0.000000
0.649112 0.375400 0.000000
0.767181 0.373838 0.000000
0.884304 0.372301 0.000000
0.998477 0.370800 0.000000
0.043316 0.494598 0.000000
0.163973 0.494197 0.000000
0.284742 0.493063 0.000000
0.406209 0.491634 0.000000
0.526740 0.490076 0.000000
0.646324 0.488474 0.000000
0.764612 0.486896 0.000000
0.882015 0.485345 0.000000
0.998393 0.483828 0.000000
0.037686 0.606845 0.000000
0.160412 0.606648 0.000000
0.282033 0.605649 0.000000
0.403392 0.604299 0.000000
0.523879 0.602794 0.000000
0.643497 0.601232 0.000000
0.761932 0.599652 0.000000
0.879531 0.598094 0.000000
0.996328 0.596555 0.000000
0.030024 0.718419 0.000000
0.156635 0.718379 0.000000
0.279633 0.717518 0.000000
0.400831 0.716277 0.000000
0.521200 0.714867 0.000000
0.640791 0.713356 0.000000
0.759265 0.711815 0.000000
0.876984 0.710272 0.000000
0.993946 0.708734 0.000000
0.014937 0.829779 0.000000
0.152454 0.829832 0.000000
0.277425 0.829087 0.000000
0.398499 0.827968 0.000000
0.518732 0.826659 0.000000
0.638230 0.825224 0.000000
0.756696 0.823737 0.000000
0.874460 0.822216 0.000000
0.991517 0.820693 0.000000
0.000000 0.940927 0.000000
0.147253 0.941051 0.000000
0.275306 0.940397 0.000000
0.396308 0.939380 0.000000
0.516420 0.938156 0.000000
0.635840 0.936806 0.000000
0.754244 0.935378 0.000000
0.872009 0.933912 0.000000
0.989113 0.932425 0.000000
0.056691 0.000000 0.067988
0.175178 0.000000 0.066877
0.294813 0.000000 0.064250
0.416260 0.000000 0.061173
0.536334 0.000000 0.058099
0.654932 0.000000 0.055112
0.771922 0.000000 0.052337
0.888061 0.000000 0.049695
0.998615 0.000000 0.047257
0.055079 0.146315 0.065533
0.173385 0.145225 0.064452
0.292207 0.142705 0.062215
0.414529 0.138488 0.059077
0.535075 0.133190 0.056182
0.654472 0.124031 0.053400
0.772196 0.110738 0.050878
0.888751 0.090015 0.048513
0.998654 0.075939 0.046300
0.051869 0.268197 0.061012
0.171241 0.267283 0.060736
0.290296 0.266226 0.058699
0.411957 0.264777 0.055243
0.532629 0.263147 0.052596
0.652372 0.261565 0.050049
0.770641 0.259906 0.047762
0.887688 0.258280 0.045684
0.998617 0.256661 0.043750
0.047685 0.381728 0.056124
0.167203 0.381122 0.055218
0.287389 0.379899 0.053234
0.408996 0.378409 0.050881
0.529725 0.376808 0.048482
0.649623 0.375155 0.046187
0.768218 0.373506 0.044115
0.885700 0.371926 0.042284
0.998539 0.370416 0.040611
0.042797 0.494621 0.051562
0.163453 0.494179 0.050559
0.284292 0.493017 0.048717
0.405886 0.491566 0.046571
0.526646 0.489983 0.044410
0.646625 0.488340 0.042331
0.765397 0.486688 0.040473
0.883179 0.485069 0.038841
0.998449 0.483516 0.037384
0.036969 0.607022 0.047522
0.159543 0.606842 0.046326
0.281260 0.605798 0.044528
0.402784 0.604409 0.042521
0.523519 0.602872 0.040543
0.643527 0.601246 0.038663
0.762386 0.599593 0.037001
0.880385 0.597944 0.035538
0.997438 0.596351 0.034235
0.029204 0.718691 0.044043
0.155502 0.718735 0.042744
0.278523 0.717880 0.040905
0.399872 0.716608 0.038959
0.520517 0.715132 0.037098
0.640478 0.713550 0.035368
0.759372 0.711909 0.033846
0.877480 0.710266 0.032497
0.994740 0.708649 0.031289
0.013592 0.830084 0.040883
0.151225 0.830255 0.039635
0.276176 0.829565 0.037829
0.397310 0.828438 0.035913
0.517774 0.827071 0.034111
0.637614 0.825562 0.032465
0.756466 0.823972 0.031013
0.874608 0.822358 0.029711
0.991986 0.820742 0.028549
0.000000 0.941252 0.037985
0.145990 0.941496 0.036827
0.274078 0.940898 0.035139
0.395061 0.939901 0.033290
0.515330 0.938650 0.031547
0.635011 0.937240 0.029927
0.753749 0.935731 0.028497
0.871865 0.934166 0.027207
0.989275 0.932573 0.026035
0.056277 0.000000 0.243092
0.174810 0.000000 0.242342
0.294460 0.000000 0.240588
0.415927 0.000000 0.238284
0.536122 0.000000 0.235562
0.654941 0.000000 0.232494
0.772162 0.000000 0.229116
0.888413 0.000000 0.225405
0.998640 0.000000 0.221242
0.054681 0.145671 0.241073
0.173096 0.144659 0.239402
0.291958 0.142086 0.237867
0.414232 0.137677 0.236294
0.534882 0.132092 0.233667
0.654525 0.118957 0.230734
0.772607 0.109100 0.227485
0.889414 0.086195 0.223862
0.998693 0.074518 0.219760
0.051460 0.267868 0.237668
0.170947 0.267029 0.236651
0.290039 0.265969 0.235028
0.410333 0.264783 0.232990
0.532412 0.262817 0.229830
0.652357 0.261192 0.226674
0.770997 0.259458 0.223171
0.888444 0.257773 0.219218
0.998667 0.256132 0.214582
0.047237 0.381402 0.233360
0.166824 0.380818 0.232453
0.288183 0.379133 0.231662
0.408565 0.377980 0.229421
0.529479 0.376494 0.224642
0.649550 0.374811 0.221011
0.768473 0.373109 0.216841
0.886389 0.371465 0.211822
0.998590 0.369916 0.205187
0.042234 0.494357 0.228361
0.162995 0.493915 0.227213
0.283914 0.492746 0.224885
0.405539 0.491286 0.221795
0.526362 0.489699 0.217999
0.646480 0.488031 0.213407
0.765549 0.486341 0.207599
0.883748 0.484661 0.197919
0.998497 0.483052 0.170786
0.036213 0.606845 0.222667
0.158901 0.606658 0.221052
0.280739 0.605604 0.218121
0.402321 0.604193 0.214137
0.523147 0.602648 0.208896
0.643289 0.601006 0.200914
0.762425 0.599319 0.178299
0.880781 0.597616 0.164083
0.998096 0.595972 0.158202
0.028111 0.718602 0.215914
0.154595 0.718694 0.213570
0.277748 0.717830 0.209291
0.399183 0.716527 0.202673
0.519935 0.715030 0.179092
0.640072 0.713419 0.165282
0.759218 0.711753 0.158645
0.877671 0.710057 0.153614
0.995266 0.708372 0.149035
0.009947 0.830054 0.205793
0.150117 0.830324 0.201617
0.275164 0.829663 0.183923
0.396325 0.828528 0.166558
0.516916 0.827138 0.159598
0.636951 0.825592 0.154345
0.756075 0.823955 0.149401
0.874543 0.822274 0.143064
0.992242 0.820588 0.139622
0.000000 0.941273 0.170467
0.144729 0.941601 0.166725
0.272970 0.941086 0.161089
0.393900 0.940115 0.155735
0.514240 0.938858 0.150915
0.634092 0.937416 0.144285
0.753100 0.935853 0.139820
0.871519 0.934201 0.136669
0.989261 0.932543 0.134020
0.055717 0.000000 0.353319
0.174281 0.000000 0.352912
0.293927 0.000000 0.351710
0.415347 0.000000 0.350138
0.535553 0.000000 0.348341
0.654477 0.000000 0.346350
0.771880 0.000000 0.344299
0.888302 0.000000 0.342285
0.998639 0.000000 0.340360
0.054154 0.144769 0.351827
0.172573 0.143667 0.351365
0.292218 0.140728 0.350199
0.413821 0.136502 0.348748
0.534485 0.130426 0.347140
0.654220 0.116439 0.345411
0.772512 0.106787 0.343592
0.889552 0.081641 0.341737
0.998704 0.072806 0.339910
0.050932 0.267429 0.349403
0.169780 0.266804 0.348900
0.289751 0.265667 0.346360
0.410048 0.264480 0.345251
0.532037 0.262477 0.344744
0.652063 0.260750 0.343105
0.770905 0.258976 0.341400
0.888661 0.257225 0.339694
0.998688 0.255534 0.338027
0.046676 0.380963 0.346566
0.166332 0.380397 0.346043
0.287896 0.378832 0.344553
0.408278 0.377690 0.343444
0.526854 0.376644 0.342425
0.649223 0.374385 0.340272
0.768318 0.372659 0.338605
0.886551 0.370960 0.336961
0.998612 0.369347 0.335487
0.041585 0.493918 0.343622
0.162460 0.493509 0.343014
0.283496 0.492342 0.341827
0.407096 0.490087 0.342113
0.525763 0.489102 0.341092
0.646138 0.487628 0.337228
0.765335 0.485919 0.335574
0.883821 0.484189 0.334023
0.998514 0.482510 0.332466
0.035344 0.606447 0.340754
0.158271 0.606300 0.339951
0.280262 0.605239 0.338688
0.401864 0.603820 0.337221
0.522720 0.602268 0.335664
0.642915 0.600626 0.334120
0.762170 0.598922 0.332441
0.880766 0.597195 0.330772
0.998320 0.595485 0.329191
0.026775 0.718277 0.338063
0.153785 0.718415 0.337012
0.277142 0.717536 0.335579
0.398609 0.716216 0.334116
0.519432 0.714705 0.332487
0.639629 0.713093 0.330802
0.758892 0.711411 0.329084
0.877558 0.709693 0.327372
0.995489 0.707968 0.325749
0.005542 0.829808 0.335641
0.149074 0.830137 0.334426
0.274344 0.829498 0.332760
0.395529 0.828346 0.330980
0.516209 0.826929 0.329194
0.636350 0.825357 0.327408
0.755611 0.823712 0.325617
0.874292 0.822009 0.323871
0.992300 0.820278 0.322204
0.000000 0.941081 0.333194
0.143443 0.941490 0.331929
0.271998 0.941032 0.330090
0.392861 0.940087 0.328062
0.513247 0.938816 0.326040
0.633235 0.937343 0.324107
0.752404 0.935749 0.322190
0.871064 0.934074 0.320341
0.989086 0.932353 0.318597
0.055090 0.000000 0.460522
0.173634 0.000000 0.460556
0.293237 0.000000 0.459488
0.414557 0.000000 0.457929
0.534707 0.000000 0.456061
0.653675 0.000000 0.453980
0.771213 0.000000 0.451813
0.887815 0.000000 0.449649
0.998626 0.000000 0.447577
0.053611 0.143683 0.459539
0.172050 0.142579 0.459456
0.291723 0.139529 0.458393
0.413299 0.135052 0.456966
0.533950 0.128046 0.455331
0.653689 0.113993 0.453545
0.772062 0.103851 0.451593
0.889274 0.078743 0.449543
0.998698 0.071124 0.447500
0.050393 0.266918 0.457271
0.169271 0.266332 0.457095
0.289182 0.265098 0.456009
0.410790 0.263577 0.454592
0.531572 0.262010 0.453036
0.651625 0.260269 0.451355
0.770543 0.258469 0.449590
0.888488 0.256682 0.447739
0.998689 0.254941 0.445848
0.046108 0.380422 0.454474
0.165814 0.379925 0.454237
0.286204 0.378716 0.453136
0.408035 0.377416 0.449333
0.526626 0.376382 0.448349
0.648795 0.373920 0.448528
0.767969 0.372179 0.446824
0.886369 0.370445 0.445078
0.998613 0.368794 0.443331
0.040930 0.493365 0.451491
0.161932 0.493028 0.451170
0.283045 0.491890 0.450049
0.406839 0.489841 0.448073
0.525521 0.488843 0.447076
0.642726 0.487939 0.446177
0.764959 0.485454 0.443767
0.883592 0.483699 0.442049
0.998514 0.481971 0.440358
0.034460 0.605916 0.448510
0.157687 0.605833 0.448023
0.279812 0.604788 0.446851
0.401414 0.603375 0.445413
0.524911 0.600765 0.446223
0.642213 0.599907 0.445309
0.761771 0.598470 0.440551
0.880493 0.596730 0.438841
0.998293 0.594977 0.437175
0.025272 0.717809 0.445667
0.153093 0.717978 0.444931
0.276632 0.717129 0.443636
0.398098 0.715809 0.442128
0.518949 0.714283 0.440552
0.639171 0.712671 0.438916
0.758485 0.710989 0.437240
0.877245 0.709249 0.435541
0.995390 0.707491 0.433896
0.003511 0.829407 0.442974
0.148172 0.829775 0.442030
0.273723 0.829163 0.440534
0.394910 0.827996 0.438895
0.515618 0.826562 0.437234
0.635817 0.824984 0.435558
0.755132 0.823327 0.433878
0.873914 0.821614 0.432207
0.992103 0.819867 0.430582
0.000000 0.940729 0.440427
0.142239 0.941207 0.439378
0.271229 0.940796 0.437722
0.392023 0.939850 0.435868
0.512464 0.938564 0.434051
0.632527 0.937064 0.432298
0.751786 0.935453 0.430590
0.870568 0.933765 0.428912
0.988777 0.932028 0.427333
0.054427 0.000000 0.568066
0.172905 0.000000 0.568591
0.292373 0.000000 0.567793
0.413567 0.000000 0.566367
0.533630 0.000000 0.564546
0.652617 0.000000 0.562475
0.770282 0.000000 0.560284
0.887058 0.000000 0.558071
0.998597 0.000000 0.555918
0.053094 0.142492 0.567743
0.171512 0.141384 0.568289
0.291153 0.138203 0.567508
0.412665 0.133430 0.566187
0.533249 0.122085 0.564575
0.652950 0.111518 0.562733
0.771327 0.097537 0.560690
0.888641 0.076240 0.558509
0.998676 0.069482 0.556308
0.049900 0.266350 0.565826
0.168774 0.265820 0.566241
0.288696 0.264596 0.565391
0.410279 0.263075 0.564071
0.531047 0.261526 0.562533
0.651078 0.259769 0.560845
0.770011 0.257968 0.559023
0.888022 0.256151 0.557064
0.998675 0.254375 0.555011
0.045587 0.379809 0.563215
0.165335 0.379398 0.563514
0.285742 0.378212 0.562606
0.407342 0.376730 0.561254
0.528166 0.375121 0.559732
0.648315 0.373425 0.558092
0.767501 0.371690 0.556377
0.885967 0.369941 0.554568
0.998602 0.368251 0.552694
0.040303 0.492741 0.560313
0.161441 0.492487 0.560478
0.282610 0.491381 0.559541
0.404210 0.489929 0.558174
0.525324 0.488609 0.553439
0.642539 0.487706 0.552565
0.764505 0.484952 0.553327
0.883195 0.483188 0.551578
0.998502 0.481439 0.549795
0.033518 0.605302 0.557342
0.157190 0.605276 0.557300
0.279387 0.604287 0.556317
0.400941 0.602889 0.554941
0.524698 0.600546 0.552652
0.642016 0.599689 0.551779
0.757693 0.598923 0.550994
0.880077 0.596228 0.548355
0.998079 0.594460 0.546602
0.023524 0.717232 0.554417
0.152525 0.717439 0.554127
0.276219 0.716628 0.553037
0.397624 0.715326 0.551623
0.518462 0.713811 0.550073
0.641911 0.710907 0.551369
0.757684 0.710179 0.550583
0.876821 0.708765 0.545021
0.995059 0.706998 0.543274
0.000000 0.828899 0.551620
0.147431 0.829282 0.551061
0.273266 0.828696 0.549810
0.394380 0.827550 0.548282
0.515091 0.826110 0.546672
0.635307 0.824523 0.545021
0.754646 0.822871 0.543333
0.873468 0.821153 0.541606
0.991749 0.819395 0.539868
0.000000 0.940288 0.548954
0.141182 0.940766 0.548214
0.270673 0.940396 0.546766
0.391390 0.939465 0.545058
0.511836 0.938164 0.543331
0.631924 0.936654 0.541603
0.751232 0.935030 0.539883
0.870060 0.933335 0.538152
0.988362 0.931598 0.536426
0.053709 0.000000 0.675788
0.172133 0.000000 0.676586
0.291441 0.000000 0.676086
0.412458 0.000000 0.674874
0.532433 0.000000 0.673216
0.651419 0.000000 0.671271
0.769169 0.000000 0.669153
0.886092 0.000000 0.666978
0.998553 0.000000 0.664798
0.052558 0.141084 0.675957
0.170970 0.140054 0.677023
0.290524 0.136690 0.676670
0.411896 0.131413 0.675594
0.532381 0.117762 0.674086
0.651998 0.108872 0.672254
0.770335 0.086459 0.670186
0.887724 0.074164 0.667951
0.998634 0.067993 0.665669
0.049420 0.265771 0.674458
0.168342 0.265306 0.675524
0.288211 0.264094 0.675121
0.409707 0.262592 0.674021
0.530415 0.261026 0.672581
0.650410 0.259279 0.670910
0.769294 0.257472 0.669055
0.887310 0.255650 0.667007
0.998641 0.253848 0.664830
0.045080 0.379181 0.672152
0.164933 0.378826 0.673090
0.285326 0.377680 0.672594
0.406839 0.376206 0.671445
0.527635 0.374603 0.669991
0.647776 0.372907 0.668376
0.766940 0.371174 0.666640
0.885424 0.369438 0.664795
0.998576 0.367744 0.662831
0.039643 0.492078 0.669464
0.161060 0.491888 0.670207
0.282224 0.490840 0.669641
0.403725 0.489411 0.668435
0.524547 0.487823 0.666965
0.644742 0.486156 0.665357
0.764003 0.484434 0.663672
0.882712 0.482670 0.661907
0.998479 0.480906 0.660065
0.032505 0.604638 0.666595
0.156810 0.604659 0.667090
0.279048 0.603723 0.666445
0.400471 0.602364 0.665214
0.521294 0.600814 0.663730
0.641843 0.599495 0.658163
0.757536 0.598729 0.657414
0.879605 0.595711 0.658703
0.997806 0.593932 0.656916
0.021369 0.716606 0.663709
0.152070 0.716811 0.663898
0.275906 0.716063 0.663150
0.397169 0.714793 0.661877
0.517962 0.713293 0.660379
0.641745 0.710712 0.657843
0.757527 0.710000 0.657087
0.872217 0.709338 0.656394
0.994627 0.706488 0.653587
0.000000 0.828306 0.660876
0.146807 0.828682 0.660761
0.272968 0.828139 0.659839
0.393935 0.827032 0.658491
0.514581 0.825607 0.656958
0.634798 0.824022 0.655324
0.757820 0.820894 0.657031
0.872596 0.820275 0.656340
0.991302 0.818885 0.650142
0.000000 0.939751 0.658150
0.140171 0.940230 0.657773
0.270338 0.939870 0.656647
0.390900 0.938970 0.655151
0.511281 0.937696 0.653527
0.631381 0.936174 0.651848
0.750709 0.934543 0.650145
0.869561 0.932852 0.648405
0.987897 0.931103 0.646634
0.052935 0.000000 0.784184
0.171375 0.000000 0.785114
0.290546 0.000000 0.784791
0.411367 0.000000 0.783803
0.531221 0.000000 0.782362
0.650183 0.000000 0.780602
0.767991 0.000000 0.778629
0.885006 0.000000 0.776550
0.998513 0.000000 0.774412
0.051938 0.139660 0.784685
0.170432 0.138656 0.785977
0.289865 0.135108 0.785949
0.411033 0.129151 0.785175
0.531360 0.115176 0.783878
0.650856 0.105776 0.782174
0.769162 0.081173 0.780183
0.886605 0.072248 0.777999
0.998592 0.066551 0.775721
0.048862 0.265194 0.783530
0.167959 0.264786 0.784969
0.287753 0.263620 0.785043
0.409081 0.262212 0.784335
0.529675 0.260569 0.783107
0.649578 0.258823 0.781531
0.768390 0.257025 0.779678
0.886363 0.255197 0.777597
0.998605 0.253367 0.775349
0.044480 0.378552 0.781556
0.164646 0.378242 0.782953
0.284983 0.377145 0.783000
0.406343 0.375694 0.782224
0.527054 0.374094 0.780973
0.647146 0.372405 0.779442
0.766279 0.370684 0.777721
0.884723 0.368951 0.775840
0.998548 0.367269 0.773799
0.038878 0.491411 0.779134
0.160823 0.491254 0.780361
0.281953 0.490255 0.780307
0.403272 0.488856 0.779450
0.524023 0.487289 0.778149
0.644193 0.485621 0.776612
0.763451 0.483900 0.774942
0.882139 0.482140 0.773169
0.998456 0.480382 0.771298
0.031305 0.603962 0.776459
0.156564 0.603978 0.777422
0.278833 0.603121 0.777253
0.400055 0.601800 0.776324
0.520795 0.600274 0.774986
0.640988 0.598631 0.773429
0.760298 0.596932 0.771762
0.879080 0.595177 0.770029
0.997304 0.593389 0.768236
0.018546 0.715940 0.773678
0.151754 0.716129 0.774329
0.275765 0.715439 0.773998
0.396794 0.714229 0.773020
0.517475 0.712753 0.771651
0.637678 0.711136 0.770087
0.757389 0.709823 0.763872
0.872091 0.709164 0.763212
0.994118 0.705941 0.764919
0.000000 0.827674 0.770892
0.146305 0.828017 0.771207
0.272854 0.827499 0.770678
0.393593 0.826448 0.769612
0.514119 0.825058 0.768221
0.634279 0.823496 0.766634
0.757679 0.820736 0.763907
0.872471 0.820111 0.763240
0.986235 0.819553 0.762636
0.000000 0.939165 0.768155
0.139282 0.939603 0.768178
0.270199 0.939258 0.767407
0.390581 0.938399 0.766202
0.510819 0.937148 0.764733
0.630862 0.935648 0.763125
0.750185 0.934024 0.761444
0.873120 0.930699 0.763519
0.986964 0.930165 0.762920
0.052091 0.000000 0.893222
0.170618 0.000000 0.894214
0.289713 0.000000 0.894026
0.410346 0.000000 0.893217
0.530079 0.000000 0.891975
0.648988 0.000000 0.890399
0.766799 0.000000 0.888592
0.883873 0.000000 0.886629
0.998469 0.000000 0.884584
0.051223 0.138010 0.893966
0.169872 0.137018 0.895308
0.289224 0.133149 0.895435
0.410156 0.122346 0.894888
0.530277 0.112603 0.893817
0.649653 0.101794 0.892322
0.767913 0.078199 0.890495
0.885384 0.070552 0.888434
0.998545 0.065217 0.886259
0.048188 0.264642 0.893087
0.167559 0.264276 0.894630
0.287321 0.263159 0.894981
0.408428 0.261794 0.894617
0.528839 0.260166 0.893705
0.648590 0.258422 0.892315
0.767295 0.256633 0.890574
0.885223 0.254791 0.888536
0.998559 0.252930 0.886315
0.043765 0.377946 0.891408
0.164369 0.377671 0.892994
0.284734 0.376611 0.893430
0.405873 0.375194 0.893121
0.526428 0.373609 0.892220
0.646423 0.371938 0.890887
0.765477 0.370220 0.889260
0.883856 0.368514 0.887383
0.998512 0.366835 0.885293
0.037970 0.490760 0.889259
0.160606 0.490609 0.890749
0.281830 0.489657 0.891144
0.402911 0.488301 0.890788
0.523511 0.486755 0.889817
0.643604 0.485088 0.888453
0.762827 0.483383 0.886858
0.881478 0.481627 0.885105
0.998427 0.479885 0.883205
0.029887 0.603296 0.886790
0.156353 0.603298 0.888065
0.278803 0.602470 0.888357
0.399753 0.601209 0.887905
0.520328 0.599706 0.886862
0.640461 0.598074 0.885458
0.759747 0.596375 0.883855
0.878518 0.594628 0.882139
0.996735 0.592845 0.880331
0.013589 0.715273 0.884171
0.151446 0.715418 0.885165
0.275798 0.714757 0.885272
0.396551 0.713607 0.884714
0.517032 0.712181 0.883612
0.637162 0.710580 0.882177
0.756475 0.708905 0.880558
0.875290 0.707165 0.878845
0.993590 0.705390 0.877073
0.000000 0.827023 0.881484
0.145797 0.827315 0.882155
0.272919 0.826805 0.882018
0.393405 0.825812 0.881355
0.513713 0.824479 0.880209
0.633772 0.822933 0.878745
0.753100 0.821280 0.877113
0.872361 0.819969 0.870304
0.986133 0.819405 0.869731
0.000000 0.938549 0.878787
0.138302 0.938942 0.879164
0.270221 0.938577 0.878766
0.390427 0.937757 0.877930
0.510439 0.936569 0.876715
0.630370 0.935089 0.875220
0.749658 0.933473 0.873588
0.873009 0.930558 0.870677
0.986873 0.930034 0.870104
