resources/public/effectPlateMain/v000/resources/BLD_Ext_D_2-Sin709.cube
# Pomfort LiveGrade
# Created by LiveGrade 6.3.3 on 2023-04-20 14:07:35 +0000
LUT_3D_SIZE 33
0.056886 0.000000 0.000000
0.085706 0.000000 0.000000
0.117546 0.000000 0.000000
0.147471 0.000000 0.000000
0.175373 0.000000 0.000000
0.204584 0.000000 0.000000
0.234413 0.000000 0.000000
0.264587 0.000000 0.000000
0.294974 0.000000 0.000000
0.325368 0.000000 0.000000
0.355617 0.000000 0.000000
0.386088 0.000000 0.000000
0.416232 0.000000 0.000000
0.446237 0.000000 0.000000
0.476057 0.000000 0.000000
0.506113 0.000000 0.000000
0.535925 0.000000 0.000000
0.565445 0.000000 0.000000
0.595157 0.000000 0.000000
0.624555 0.000000 0.000000
0.654120 0.000000 0.000000
0.683340 0.000000 0.000000
0.712727 0.000000 0.000000
0.741751 0.000000 0.000000
0.770918 0.000000 0.000000
0.800244 0.000000 0.000000
0.829198 0.000000 0.000000
0.858300 0.000000 0.000000
0.887004 0.000000 0.000000
0.915827 0.000000 0.000000
0.944766 0.000000 0.000000
0.973310 0.000000 0.000000
0.998570 0.000000 0.000000
0.061274 0.037392 0.000000
0.090504 0.039360 0.000000
0.117962 0.039693 0.000000
0.146625 0.038279 0.000000
0.174864 0.035653 0.000000
0.204118 0.023979 0.000000
0.233923 0.019777 0.000000
0.264095 0.017046 0.000000
0.294495 0.014779 0.000000
0.324891 0.012837 0.000000
0.355158 0.011117 0.000000
0.385659 0.009573 0.000000
0.415845 0.008166 0.000000
0.445892 0.006864 0.000000
0.475752 0.005653 0.000000
0.505874 0.004506 0.000000
0.535739 0.003381 0.000000
0.565323 0.002270 0.000000
0.595087 0.001196 0.000000
0.624538 0.000275 0.000000
0.654149 0.000037 0.000000
0.683410 0.000000 0.000000
0.712834 0.000000 0.000000
0.741893 0.000000 0.000000
0.771094 0.000000 0.000000
0.800444 0.000000 0.000000
0.829422 0.000000 0.000000
0.858550 0.000000 0.000000
0.887264 0.000000 0.000000
0.916107 0.000000 0.000000
0.945067 0.000000 0.000000
0.973587 0.000000 0.000000
0.998580 0.000000 0.000000
0.058603 0.082264 0.000000
0.092143 0.082179 0.000000
0.119604 0.082714 0.000000
0.146735 0.082627 0.000000
0.174435 0.081974 0.000000
0.203678 0.080818 0.000000
0.233477 0.079299 0.000000
0.263647 0.077422 0.000000
0.294037 0.075082 0.000000
0.324449 0.071887 0.000000
0.354715 0.065164 0.000000
0.385225 0.052609 0.000000
0.415434 0.048755 0.000000
0.445514 0.045704 0.000000
0.475399 0.042929 0.000000
0.505559 0.039816 0.000000
0.535462 0.035094 0.000000
0.565088 0.032677 0.000000
0.594905 0.030688 0.000000
0.624395 0.028956 0.000000
0.654049 0.027371 0.000000
0.683349 0.025915 0.000000
0.712800 0.024530 0.000000
0.741889 0.023236 0.000000
0.771120 0.022030 0.000000
0.800487 0.020883 0.000000
0.829486 0.019775 0.000000
0.858631 0.018688 0.000000
0.887367 0.017650 0.000000
0.916226 0.016639 0.000000
0.945203 0.015653 0.000000
0.973715 0.014706 0.000000
0.998592 0.013808 0.000000
0.056117 0.115562 0.000000
0.090890 0.115139 0.000000
0.119698 0.115041 0.000000
0.146704 0.114916 0.000000
0.174054 0.114537 0.000000
0.203254 0.113832 0.000000
0.233049 0.112925 0.000000
0.263206 0.111894 0.000000
0.293609 0.110748 0.000000
0.324007 0.109465 0.000000
0.354290 0.108049 0.000000
0.384804 0.106448 0.000000
0.415025 0.104646 0.000000
0.445121 0.102545 0.000000
0.475029 0.099957 0.000000
0.505209 0.096119 0.000000
0.535149 0.085873 0.000000
0.564815 0.081722 0.000000
0.594671 0.078086 0.000000
0.624197 0.073364 0.000000
0.653887 0.063332 0.000000
0.683222 0.060005 0.000000
0.712710 0.057530 0.000000
0.741818 0.055455 0.000000
0.771079 0.053577 0.000000
0.800469 0.051854 0.000000
0.829495 0.050245 0.000000
0.858659 0.048719 0.000000
0.887412 0.047306 0.000000
0.916287 0.045989 0.000000
0.945278 0.044765 0.000000
0.973785 0.043580 0.000000
0.998595 0.042452 0.000000
0.055269 0.146596 0.000000
0.089767 0.146377 0.000000
0.119055 0.146124 0.000000
0.146304 0.145879 0.000000
0.173611 0.145559 0.000000
0.202803 0.145022 0.000000
0.232590 0.144288 0.000000
0.262737 0.143546 0.000000
0.293139 0.142733 0.000000
0.323538 0.141854 0.000000
0.353820 0.140926 0.000000
0.384345 0.139913 0.000000
0.414576 0.138849 0.000000
0.444681 0.137703 0.000000
0.474607 0.136477 0.000000
0.504814 0.135136 0.000000
0.534779 0.133690 0.000000
0.564474 0.132169 0.000000
0.594362 0.130436 0.000000
0.623922 0.128493 0.000000
0.653644 0.125527 0.000000
0.683010 0.118723 0.000000
0.712524 0.116119 0.000000
0.741668 0.113868 0.000000
0.770952 0.111704 0.000000
0.800368 0.109486 0.000000
0.829420 0.106996 0.000000
0.858600 0.103689 0.000000
0.887368 0.097829 0.000000
0.916257 0.088493 0.000000
0.945269 0.082092 0.000000
0.973800 0.079212 0.000000
0.998597 0.076846 0.000000
0.054616 0.179210 0.000000
0.089076 0.179032 0.000000
0.118383 0.178818 0.000000
0.145696 0.178604 0.000000
0.172983 0.178341 0.000000
0.202247 0.177941 0.000000
0.232024 0.177447 0.000000
0.262165 0.176903 0.000000
0.292557 0.176322 0.000000
0.322967 0.175714 0.000000
0.353249 0.175076 0.000000
0.383777 0.174412 0.000000
0.414022 0.173721 0.000000
0.444133 0.173006 0.000000
0.474072 0.172268 0.000000
0.504300 0.171500 0.000000
0.534283 0.170719 0.000000
0.564010 0.169954 0.000000
0.593917 0.169135 0.000000
0.623506 0.168282 0.000000
0.653260 0.167396 0.000000
0.682657 0.166476 0.000000
0.712204 0.165517 0.000000
0.741371 0.164520 0.000000
0.770680 0.163448 0.000000
0.800132 0.162289 0.000000
0.829203 0.161250 0.000000
0.858399 0.160038 0.000000
0.887190 0.158526 0.000000
0.916098 0.156231 0.000000
0.945125 0.152476 0.000000
0.973692 0.150746 0.000000
0.998596 0.149267 0.000000
0.053846 0.210462 0.000000
0.088304 0.210300 0.000000
0.117639 0.210125 0.000000
0.145000 0.209936 0.000000
0.172307 0.209717 0.000000
0.201593 0.209391 0.000000
0.231386 0.209004 0.000000
0.261526 0.208584 0.000000
0.291916 0.208137 0.000000
0.322328 0.207655 0.000000
0.352613 0.207167 0.000000
0.383150 0.206665 0.000000
0.413390 0.206147 0.000000
0.443514 0.205620 0.000000
0.473470 0.205074 0.000000
0.503714 0.204514 0.000000
0.533712 0.203955 0.000000
0.563454 0.203387 0.000000
0.593392 0.202818 0.000000
0.623010 0.202234 0.000000
0.652794 0.201645 0.000000
0.682215 0.201056 0.000000
0.711786 0.200449 0.000000
0.740987 0.199838 0.000000
0.770331 0.199222 0.000000
0.799803 0.198593 0.000000
0.828888 0.197964 0.000000
0.858110 0.197297 0.000000
0.886928 0.196629 0.000000
0.915859 0.195947 0.000000
0.944900 0.195245 0.000000
0.973505 0.194511 0.000000
0.998588 0.193790 0.000000
0.052986 0.239993 0.000000
0.087458 0.239843 0.000000
0.116834 0.239677 0.000000
0.144245 0.239508 0.000000
0.171588 0.239309 0.000000
0.201012 0.239029 0.000000
0.230727 0.238710 0.000000
0.260863 0.238349 0.000000
0.291252 0.237974 0.000000
0.321665 0.237577 0.000000
0.351950 0.237172 0.000000
0.382490 0.236743 0.000000
0.412741 0.236319 0.000000
0.442868 0.235878 0.000000
0.472825 0.235443 0.000000
0.503085 0.234979 0.000000
0.533098 0.234522 0.000000
0.562856 0.234062 0.000000
0.592820 0.233605 0.000000
0.622458 0.233153 0.000000
0.652267 0.232681 0.000000
0.681718 0.232217 0.000000
0.711318 0.231753 0.000000
0.740544 0.231290 0.000000
0.769907 0.230823 0.000000
0.799407 0.230331 0.000000
0.828518 0.229861 0.000000
0.857757 0.229372 0.000000
0.886590 0.228886 0.000000
0.915543 0.228396 0.000000
0.944607 0.227895 0.000000
0.973270 0.227382 0.000000
0.998568 0.226852 0.000000
0.052086 0.268379 0.000000
0.086555 0.268231 0.000000
0.115982 0.268081 0.000000
0.143444 0.267924 0.000000
0.170817 0.267736 0.000000
0.200314 0.267473 0.000000
0.230029 0.267169 0.000000
0.260164 0.266839 0.000000
0.290552 0.266483 0.000000
0.320964 0.266116 0.000000
0.351251 0.265742 0.000000
0.381791 0.265368 0.000000
0.412044 0.264976 0.000000
0.442185 0.264577 0.000000
0.472156 0.264183 0.000000
0.502418 0.263789 0.000000
0.532445 0.263389 0.000000
0.562218 0.262984 0.000000
0.592198 0.262652 0.000000
0.621860 0.262281 0.000000
0.651691 0.261884 0.000000
0.681163 0.261491 0.000000
0.710792 0.261093 0.000000
0.740045 0.260697 0.000000
0.769435 0.260310 0.000000
0.798949 0.259911 0.000000
0.828089 0.259506 0.000000
0.857356 0.259113 0.000000
0.886208 0.258714 0.000000
0.915179 0.258312 0.000000
0.944267 0.257911 0.000000
0.973003 0.257490 0.000000
0.998554 0.257073 0.000000
0.051125 0.296760 0.000000
0.085594 0.296625 0.000000
0.115084 0.296473 0.000000
0.142607 0.296307 0.000000
0.170022 0.296126 0.000000
0.199586 0.295867 0.000000
0.229325 0.295553 0.000000
0.259459 0.295234 0.000000
0.289849 0.294879 0.000000
0.320248 0.294525 0.000000
0.350536 0.294151 0.000000
0.381088 0.293767 0.000000
0.411342 0.293374 0.000000
0.441484 0.292987 0.000000
0.471457 0.292594 0.000000
0.501732 0.292188 0.000000
0.531775 0.291788 0.000000
0.561560 0.291394 0.000000
0.591554 0.290998 0.000000
0.621231 0.290600 0.000000
0.651086 0.290201 0.000000
0.680580 0.289812 0.000000
0.710228 0.289426 0.000000
0.739506 0.289039 0.000000
0.768913 0.288654 0.000000
0.798453 0.288280 0.000000
0.827619 0.287899 0.000000
0.856913 0.287519 0.000000
0.885790 0.287146 0.000000
0.914778 0.286772 0.000000
0.943875 0.286397 0.000000
0.972687 0.286023 0.000000
0.998537 0.285644 0.000000
0.050123 0.325040 0.000000
0.084607 0.324908 0.000000
0.114159 0.324759 0.000000
0.141741 0.324595 0.000000
0.169210 0.324416 0.000000
0.198846 0.324153 0.000000
0.228609 0.323850 0.000000
0.258731 0.323521 0.000000
0.289119 0.323178 0.000000
0.319530 0.322824 0.000000
0.349818 0.322452 0.000000
0.380370 0.322065 0.000000
0.410626 0.321687 0.000000
0.440769 0.321288 0.000000
0.470754 0.320896 0.000000
0.501030 0.320503 0.000000
0.531087 0.320102 0.000000
0.560875 0.319708 0.000000
0.590882 0.319302 0.000000
0.620573 0.318900 0.000000
0.650447 0.318507 0.000000
0.679969 0.318121 0.000000
0.709640 0.317727 0.000000
0.738935 0.317340 0.000000
0.768368 0.316953 0.000000
0.797935 0.316578 0.000000
0.827116 0.316198 0.000000
0.856433 0.315817 0.000000
0.885329 0.315444 0.000000
0.914335 0.315071 0.000000
0.943456 0.314693 0.000000
0.972345 0.314309 0.000000
0.998519 0.313942 0.000000
0.049070 0.353566 0.000000
0.083575 0.353444 0.000000
0.113183 0.353298 0.000000
0.140848 0.353144 0.000000
0.168364 0.352965 0.000000
0.198089 0.352707 0.000000
0.227881 0.352407 0.000000
0.258003 0.352089 0.000000
0.288391 0.351734 0.000000
0.318790 0.351381 0.000000
0.349077 0.351009 0.000000
0.379633 0.350637 0.000000
0.409886 0.350247 0.000000
0.440043 0.349860 0.000000
0.470029 0.349466 0.000000
0.500304 0.349072 0.000000
0.530374 0.348671 0.000000
0.560176 0.348277 0.000000
0.590197 0.347874 0.000000
0.619902 0.347472 0.000000
0.649784 0.347071 0.000000
0.679319 0.346683 0.000000
0.709015 0.346296 0.000000
0.738334 0.345909 0.000000
0.767781 0.345522 0.000000
0.797375 0.345134 0.000000
0.826582 0.344752 0.000000
0.855914 0.344371 0.000000
0.884833 0.343998 0.000000
0.913860 0.343625 0.000000
0.942996 0.343250 0.000000
0.971953 0.342863 0.000000
0.998499 0.342496 0.000000
0.047996 0.381847 0.000000
0.082511 0.381729 0.000000
0.112196 0.381586 0.000000
0.139931 0.381437 0.000000
0.167506 0.381266 0.000000
0.197321 0.381010 0.000000
0.227144 0.380720 0.000000
0.257266 0.380392 0.000000
0.287653 0.380050 0.000000
0.318051 0.379699 0.000000
0.348338 0.379325 0.000000
0.378894 0.378953 0.000000
0.409160 0.378575 0.000000
0.439304 0.378188 0.000000
0.469304 0.377796 0.000000
0.499581 0.377390 0.000000
0.529651 0.376989 0.000000
0.559466 0.376596 0.000000
0.589499 0.376199 0.000000
0.619218 0.375801 0.000000
0.649112 0.375400 0.000000
0.678663 0.375006 0.000000
0.708373 0.374612 0.000000
0.737709 0.374224 0.000000
0.767181 0.373838 0.000000
0.796787 0.373449 0.000000
0.826018 0.373057 0.000000
0.855367 0.372674 0.000000
0.884304 0.372301 0.000000
0.913357 0.371928 0.000000
0.942517 0.371552 0.000000
0.971559 0.371179 0.000000
0.998477 0.370800 0.000000
0.046893 0.410025 0.000000
0.081406 0.409931 0.000000
0.111171 0.409792 0.000000
0.138988 0.409656 0.000000
0.166638 0.409487 0.000000
0.196550 0.409241 0.000000
0.226419 0.408943 0.000000
0.256540 0.408627 0.000000
0.286914 0.408285 0.000000
0.317312 0.407934 0.000000
0.347599 0.407575 0.000000
0.378153 0.407191 0.000000
0.408421 0.406812 0.000000
0.438566 0.406426 0.000000
0.468565 0.406033 0.000000
0.498855 0.405640 0.000000
0.528924 0.405239 0.000000
0.558752 0.404846 0.000000
0.588787 0.404439 0.000000
0.618516 0.404038 0.000000
0.648425 0.403637 0.000000
0.677994 0.403243 0.000000
0.707724 0.402849 0.000000
0.737075 0.402462 0.000000
0.766572 0.402073 0.000000
0.796193 0.401685 0.000000
0.825436 0.401294 0.000000
0.854809 0.400912 0.000000
0.883763 0.400537 0.000000
0.912832 0.400163 0.000000
0.942012 0.399785 0.000000
0.971134 0.399401 0.000000
0.998454 0.399035 0.000000
0.045740 0.438089 0.000000
0.080276 0.437997 0.000000
0.110135 0.437873 0.000000
0.138046 0.437738 0.000000
0.165768 0.437577 0.000000
0.195779 0.437337 0.000000
0.225703 0.437051 0.000000
0.255813 0.436737 0.000000
0.286186 0.436397 0.000000
0.316584 0.436045 0.000000
0.346871 0.435686 0.000000
0.377424 0.435315 0.000000
0.407680 0.434937 0.000000
0.437837 0.434552 0.000000
0.467836 0.434159 0.000000
0.498127 0.433766 0.000000
0.528197 0.433366 0.000000
0.558024 0.432971 0.000000
0.588071 0.432565 0.000000
0.617813 0.432164 0.000000
0.647734 0.431763 0.000000
0.677315 0.431369 0.000000
0.707059 0.430975 0.000000
0.736423 0.430587 0.000000
0.765933 0.430198 0.000000
0.795580 0.429798 0.000000
0.824838 0.429417 0.000000
0.854232 0.429036 0.000000
0.883201 0.428654 0.000000
0.912284 0.428275 0.000000
0.941478 0.427897 0.000000
0.970653 0.427511 0.000000
0.998428 0.427145 0.000000
0.044546 0.466431 0.000000
0.079105 0.466367 0.000000
0.109057 0.466258 0.000000
0.137067 0.466129 0.000000
0.164871 0.465977 0.000000
0.194991 0.465736 0.000000
0.224975 0.465451 0.000000
0.255086 0.465152 0.000000
0.285459 0.464811 0.000000
0.315855 0.464474 0.000000
0.346129 0.464115 0.000000
0.376682 0.463744 0.000000
0.406938 0.463366 0.000000
0.437094 0.462982 0.000000
0.467095 0.462602 0.000000
0.497384 0.462209 0.000000
0.527469 0.461809 0.000000
0.557297 0.461415 0.000000
0.587343 0.461008 0.000000
0.617096 0.460608 0.000000
0.647030 0.460206 0.000000
0.676617 0.459812 0.000000
0.706371 0.459418 0.000000
0.735757 0.459026 0.000000
0.765280 0.458628 0.000000
0.794940 0.458241 0.000000
0.824222 0.457847 0.000000
0.853630 0.457465 0.000000
0.882613 0.457083 0.000000
0.911713 0.456703 0.000000
0.940931 0.456325 0.000000
0.970172 0.455940 0.000000
0.998402 0.455561 0.000000
0.043316 0.494598 0.000000
0.077907 0.494558 0.000000
0.107970 0.494457 0.000000
0.136079 0.494339 0.000000
0.163973 0.494197 0.000000
0.194218 0.493973 0.000000
0.224273 0.493690 0.000000
0.254371 0.493391 0.000000
0.284742 0.493063 0.000000
0.315128 0.492715 0.000000
0.345412 0.492368 0.000000
0.375953 0.491999 0.000000
0.406209 0.491634 0.000000
0.436364 0.491249 0.000000
0.466352 0.490870 0.000000
0.496655 0.490476 0.000000
0.526740 0.490076 0.000000
0.556567 0.489682 0.000000
0.586626 0.489276 0.000000
0.616380 0.488875 0.000000
0.646324 0.488474 0.000000
0.675924 0.488079 0.000000
0.705684 0.487685 0.000000
0.735074 0.487294 0.000000
0.764612 0.486896 0.000000
0.794297 0.486508 0.000000
0.823591 0.486115 0.000000
0.853012 0.485721 0.000000
0.882015 0.485345 0.000000
0.911133 0.484964 0.000000
0.940362 0.484578 0.000000
0.969670 0.484194 0.000000
0.998393 0.483828 0.000000
0.042024 0.522567 0.000000
0.076664 0.522540 0.000000
0.106871 0.522454 0.000000
0.135095 0.522345 0.000000
0.163090 0.522209 0.000000
0.193463 0.521998 0.000000
0.223582 0.521730 0.000000
0.253680 0.521431 0.000000
0.284039 0.521105 0.000000
0.314422 0.520768 0.000000
0.344695 0.520422 0.000000
0.375235 0.520053 0.000000
0.405489 0.519688 0.000000
0.435635 0.519304 0.000000
0.465633 0.518924 0.000000
0.495925 0.518532 0.000000
0.526009 0.518144 0.000000
0.555849 0.517751 0.000000
0.585908 0.517356 0.000000
0.615663 0.516956 0.000000
0.645616 0.516555 0.000000
0.675229 0.516153 0.000000
0.705002 0.515754 0.000000
0.734403 0.515362 0.000000
0.763951 0.514964 0.000000
0.793637 0.514576 0.000000
0.822944 0.514183 0.000000
0.852388 0.513801 0.000000
0.881405 0.513417 0.000000
0.910536 0.513032 0.000000
0.939781 0.512646 0.000000
0.969137 0.512260 0.000000
0.998035 0.511881 0.000000
0.040656 0.550758 0.000000
0.075369 0.550742 0.000000
0.105733 0.550678 0.000000
0.134082 0.550587 0.000000
0.162203 0.550463 0.000000
0.192716 0.550255 0.000000
0.222916 0.549990 0.000000
0.253003 0.549704 0.000000
0.283348 0.549390 0.000000
0.313728 0.549055 0.000000
0.343990 0.548711 0.000000
0.374528 0.548352 0.000000
0.404771 0.547989 0.000000
0.434915 0.547615 0.000000
0.464915 0.547236 0.000000
0.495206 0.546843 0.000000
0.525289 0.546457 0.000000
0.555118 0.546063 0.000000
0.585191 0.545669 0.000000
0.614946 0.545271 0.000000
0.644899 0.544870 0.000000
0.674521 0.544476 0.000000
0.704306 0.544079 0.000000
0.733719 0.543687 0.000000
0.763279 0.543287 0.000000
0.792976 0.542890 0.000000
0.822296 0.542508 0.000000
0.851753 0.542115 0.000000
0.880783 0.541732 0.000000
0.909932 0.541346 0.000000
0.939191 0.540959 0.000000
0.968553 0.540573 0.000000
0.997486 0.540193 0.000000
0.039224 0.578695 0.000000
0.074028 0.578707 0.000000
0.104572 0.578643 0.000000
0.133067 0.578565 0.000000
0.161308 0.578455 0.000000
0.191965 0.578251 0.000000
0.222262 0.577996 0.000000
0.252349 0.577714 0.000000
0.282680 0.577415 0.000000
0.313051 0.577089 0.000000
0.343307 0.576748 0.000000
0.373836 0.576400 0.000000
0.404077 0.576037 0.000000
0.434219 0.575666 0.000000
0.464210 0.575288 0.000000
0.494500 0.574904 0.000000
0.524584 0.574518 0.000000
0.554412 0.574125 0.000000
0.584483 0.573731 0.000000
0.614240 0.573344 0.000000
0.644203 0.572943 0.000000
0.673827 0.572549 0.000000
0.703615 0.572149 0.000000
0.733035 0.571756 0.000000
0.762607 0.571362 0.000000
0.792316 0.570962 0.000000
0.821647 0.570572 0.000000
0.851117 0.570190 0.000000
0.880168 0.569804 0.000000
0.909323 0.569418 0.000000
0.938596 0.569032 0.000000
0.967972 0.568646 0.000000
0.996909 0.568266 0.000000
0.037686 0.606845 0.000000
0.072589 0.606870 0.000000
0.103357 0.606825 0.000000
0.132017 0.606754 0.000000
0.160412 0.606648 0.000000
0.191217 0.606457 0.000000
0.221628 0.606215 0.000000
0.251709 0.605944 0.000000
0.282033 0.605649 0.000000
0.312390 0.605329 0.000000
0.342636 0.604996 0.000000
0.373154 0.604655 0.000000
0.403392 0.604299 0.000000
0.433528 0.603930 0.000000
0.463513 0.603559 0.000000
0.493795 0.603180 0.000000
0.523879 0.602794 0.000000
0.553706 0.602410 0.000000
0.583778 0.602016 0.000000
0.613535 0.601620 0.000000
0.643497 0.601232 0.000000
0.673126 0.600838 0.000000
0.702920 0.600438 0.000000
0.732348 0.600042 0.000000
0.761932 0.599652 0.000000
0.791653 0.599252 0.000000
0.820996 0.598867 0.000000
0.850467 0.598476 0.000000
0.879531 0.598094 0.000000
0.908702 0.597707 0.000000
0.937983 0.597321 0.000000
0.967376 0.596935 0.000000
0.996328 0.596555 0.000000
0.036034 0.634708 0.000000
0.071082 0.634747 0.000000
0.102107 0.634710 0.000000
0.130949 0.634657 0.000000
0.159497 0.634552 0.000000
0.190487 0.634372 0.000000
0.221075 0.634146 0.000000
0.251091 0.633881 0.000000
0.281408 0.633595 0.000000
0.311757 0.633282 0.000000
0.341992 0.632954 0.000000
0.372502 0.632613 0.000000
0.402732 0.632268 0.000000
0.432855 0.631909 0.000000
0.462835 0.631544 0.000000
0.493117 0.631166 0.000000
0.523194 0.630787 0.000000
0.553021 0.630399 0.000000
0.583085 0.630015 0.000000
0.612850 0.629625 0.000000
0.642805 0.629226 0.000000
0.672440 0.628837 0.000000
0.702235 0.628443 0.000000
0.731669 0.628048 0.000000
0.761260 0.627659 0.000000
0.790993 0.627259 0.000000
0.820348 0.626878 0.000000
0.849829 0.626487 0.000000
0.878893 0.626100 0.000000
0.908083 0.625715 0.000000
0.937371 0.625328 0.000000
0.966772 0.624942 0.000000
0.995741 0.624563 0.000000
0.034222 0.662763 0.000000
0.069449 0.662805 0.000000
0.100791 0.662784 0.000000
0.129832 0.662738 0.000000
0.158559 0.662647 0.000000
0.189752 0.662478 0.000000
0.220520 0.662261 0.000000
0.250491 0.662003 0.000000
0.280794 0.661725 0.000000
0.311136 0.661423 0.000000
0.341357 0.661103 0.000000
0.371860 0.660765 0.000000
0.402080 0.660423 0.000000
0.432195 0.660079 0.000000
0.462165 0.659715 0.000000
0.492445 0.659342 0.000000
0.522515 0.658971 0.000000
0.552341 0.658583 0.000000
0.582400 0.658202 0.000000
0.612160 0.657818 0.000000
0.642123 0.657428 0.000000
0.671754 0.657033 0.000000
0.701562 0.656639 0.000000
0.730996 0.656252 0.000000
0.760587 0.655862 0.000000
0.790327 0.655462 0.000000
0.819687 0.655082 0.000000
0.849180 0.654690 0.000000
0.878254 0.654304 0.000000
0.907444 0.653917 0.000000
0.936756 0.653532 0.000000
0.966163 0.653145 0.000000
0.995142 0.652766 0.000000
0.032249 0.690505 0.000000
0.067695 0.690552 0.000000
0.099413 0.690549 0.000000
0.128687 0.690511 0.000000
0.157611 0.690425 0.000000
0.189022 0.690267 0.000000
0.219928 0.690057 0.000000
0.249917 0.689809 0.000000
0.280207 0.689535 0.000000
0.310537 0.689236 0.000000
0.340749 0.688937 0.000000
0.371239 0.688600 0.000000
0.401446 0.688268 0.000000
0.431556 0.687928 0.000000
0.461524 0.687569 0.000000
0.491786 0.687205 0.000000
0.521851 0.686833 0.000000
0.551674 0.686458 0.000000
0.581733 0.686078 0.000000
0.611492 0.685694 0.000000
0.641450 0.685307 0.000000
0.671086 0.684923 0.000000
0.700894 0.684528 0.000000
0.730337 0.684142 0.000000
0.759930 0.683754 0.000000
0.789672 0.683355 0.000000
0.819033 0.682971 0.000000
0.848535 0.682584 0.000000
0.877620 0.682197 0.000000
0.906821 0.681811 0.000000
0.936133 0.681425 0.000000
0.965559 0.681039 0.000000
0.994550 0.680660 0.000000
0.030024 0.718419 0.000000
0.065762 0.718479 0.000000
0.097935 0.718479 0.000000
0.127477 0.718447 0.000000
0.156635 0.718379 0.000000
0.188281 0.718221 0.000000
0.219335 0.718021 0.000000
0.249344 0.717779 0.000000
0.279633 0.717518 0.000000
0.309939 0.717230 0.000000
0.340159 0.716933 0.000000
0.370638 0.716608 0.000000
0.400831 0.716277 0.000000
0.430929 0.715935 0.000000
0.460884 0.715599 0.000000
0.491144 0.715237 0.000000
0.521200 0.714867 0.000000
0.551012 0.714501 0.000000
0.581067 0.714123 0.000000
0.610831 0.713741 0.000000
0.640791 0.713356 0.000000
0.670418 0.712976 0.000000
0.700227 0.712589 0.000000
0.729672 0.712202 0.000000
0.759265 0.711815 0.000000
0.789018 0.711427 0.000000
0.818381 0.711036 0.000000
0.847890 0.710652 0.000000
0.876984 0.710272 0.000000
0.906196 0.709885 0.000000
0.935519 0.709499 0.000000
0.964946 0.709113 0.000000
0.993946 0.708734 0.000000
0.027493 0.746505 0.000000
0.063602 0.746578 0.000000
0.096315 0.746578 0.000000
0.126199 0.746559 0.000000
0.155617 0.746498 0.000000
0.187534 0.746347 0.000000
0.218742 0.746148 0.000000
0.248783 0.745930 0.000000
0.279059 0.745669 0.000000
0.309364 0.745396 0.000000
0.339572 0.745099 0.000000
0.370037 0.744787 0.000000
0.400230 0.744456 0.000000
0.430315 0.744128 0.000000
0.460258 0.743779 0.000000
0.490504 0.743430 0.000000
0.520560 0.743072 0.000000
0.550372 0.742707 0.000000
0.580417 0.742329 0.000000
0.610169 0.741957 0.000000
0.640131 0.741583 0.000000
0.669759 0.741208 0.000000
0.699560 0.740821 0.000000
0.729007 0.740435 0.000000
0.758612 0.740047 0.000000
0.788365 0.739660 0.000000
0.817738 0.739280 0.000000
0.847249 0.738888 0.000000
0.876343 0.738511 0.000000
0.905559 0.738131 0.000000
0.934893 0.737744 0.000000
0.964331 0.737358 0.000000
0.993332 0.736980 0.000000
0.024464 0.774278 0.000000
0.061200 0.774364 0.000000
0.094582 0.774365 0.000000
0.124877 0.774346 0.000000
0.154605 0.774285 0.000000
0.186801 0.774146 0.000000
0.218165 0.773960 0.000000
0.248233 0.773744 0.000000
0.278508 0.773496 0.000000
0.308810 0.773224 0.000000
0.338994 0.772939 0.000000
0.369458 0.772628 0.000000
0.399640 0.772309 0.000000
0.429724 0.771983 0.000000
0.459654 0.771658 0.000000
0.489901 0.771308 0.000000
0.519944 0.770951 0.000000
0.549743 0.770585 0.000000
0.579787 0.770219 0.000000
0.609540 0.769859 0.000000
0.639492 0.769478 0.000000
0.669116 0.769099 0.000000
0.698917 0.768719 0.000000
0.728364 0.768343 0.000000
0.757969 0.767965 0.000000
0.787722 0.767578 0.000000
0.817095 0.767198 0.000000
